shader_type spatial;
render_mode blend_add,depth_draw_opaque,cull_back,diffuse_burley,unshaded,specular_disabled,ambient_light_disabled,fog_disabled;
#include "res://engine/effects/material.gdshaderinc"
